X:1
T:大提琴练习曲_Book1_P14_No.21
T:大提琴练习曲_Book1_P14_No.21
L:1/8
Q:1/4=80
M:6/8
K:G
V:1 bass nm="大提琴" snm="Vc."
V:1
 C,,C,,C,, C,,C,,C,, | !tenuto!E,(E,F, G,)F,E, | !tenuto!B,,(E,F, G,)F,E, | %3
 !tenuto!F,(F,G, A,)G,F, | !tenuto!B,,(F,G, A,)G,F, | !tenuto!G,(E,F, G,)F,E, | %6
 !tenuto!C(A,B, C)A,G, | !tenuto!F,(D,E, F,)E,D, | !tenuto!B,(G,A, B,)G,F, | %9
 !tenuto!E,(C,D, E,)F,G, | A,B,A, G,F,E, | F,(B,,F,) G,(E,G,) |!>(! ([B,,F,]6!>)! | %13
!p! G,)(G,A, B,)A,G, | !tenuto!D,(G,A, B,)A,G, |!<(! A,B,C B,A,G,!<)! |!>(! F,E,D, C,B,,A,,!>)! | %17
!p! !tenuto!G,,(G,A, B,)A,G, |!<(! !tenuto!D,(G,A, B,)A,G,!<)! |!>(! E,^G,B, DCB,!>)! | %20
 A,!4!^G,!2!=F, E,D,B,, | !tenuto!A,,(A,,B,, C,)B,,A,, | !tenuto!E,,(A,,B,, C,)B,,A,, | %23
 !tenuto!B,,(B,,C, D,)C,B,, | !tenuto!E,,(B,,C, D,)C,B,, | C,A,,B,, C,D,E, | =F,G,F, E,D,C, | %27
 B,,G,,A,, B,,D,E, |!<(! =F,D,B,, G,,=F,,D,,!<)! |!mf! !tenuto!C,,(C,D, E,)D,C, | %30
 !tenuto!G,,(C,D, E,)D,C, | !tenuto!D,(D,E, =F,)E,D, | G,,(D,E, =F,)E,D, |!<(! E,C,D, E,=F,G,!<)! | %34
!>(! A,B,A, G,=F,E,!>)! |!<(! D,B,,C, D,E,=F,!<)! |!>(! G,A,G, =F,E,D,!>)! | C,A,,B,, C,D,E, | %38
"_dim." =F,G,F, E,D,C, | B,,G,,A,, B,,C,D, | E,=F,E, D,C,B,, |!p! !tenuto!A,,(A,,B,, C,)B,,A,, | %42
 !tenuto!^D,,(A,,B,, C,)B,,A,, | !tenuto!E,,(A,,B,, C,)B,,A,, | !tenuto!^F,,(A,,B,, C,)B,,A,, | %45
 G,,B,,E, G,A,B, | CA,E, C,B,,A,, | B,,E,F,!<(! G,A,B,!<)! |!<(! A,CB, A,G,F,!<)! | %49
!mf! !tenuto!E,(E,F, G,)F,E, | !tenuto!F,(A,B, C)B,A, | !tenuto!^G,(D,E, =F,)E,D, | %52
 !tenuto!C,(A,,B,, C,)B,,A,, | D,D,E,!<(! F,G,A,!<)! |!>(! B,C^C D=CB,!>)! | %55
!>(! A,G,F, E,D,C,!>)! | B,,D,C, B,,A,,G,, | !tenuto!C,(E,F, G,)F,E, | !tenuto!B,,(E,F, G,)F,E, | %59
 !tenuto!^A,,(E,F, G,)F,E, | !tenuto!B,,(F,G, A,)G,F, | !tenuto!E,(E,F, G,)F,E, | %62
 !tenuto!B,,(A,B, C)B,A, | !tenuto!G,(E,F, G,)F,E, | !tenuto!B,,(A,B, C)B,A, | %65
 !tenuto!G,!tenuto!B,!tenuto!G, !tenuto!E,!tenuto!G,!tenuto!E, | %66
 !tenuto!B,,!tenuto!E,!tenuto!B,, !tenuto!G,,!tenuto!B,,!tenuto!G,, | !fermata!E,,6 |] %68

